assets/image/access-car.svg

<svg width="128" height="128" viewBox="0 0 128 128" fill="none" xmlns="http://www.w3.org/2000/svg">
<path d="M85.7171 79.715H91.0071C91.2881 79.7145 91.5573 79.6025 91.7557 79.4035C91.9541 79.2046 92.0654 78.935 92.0651 78.654V73.348C92.0654 73.0671 91.9541 72.7975 91.7557 72.5986C91.5573 72.3996 91.2881 72.2876 91.0071 72.287H85.7171C85.4363 72.2876 85.1672 72.3995 84.9689 72.5982C84.7705 72.7969 84.6591 73.0663 84.6591 73.347V78.654C84.6588 78.935 84.7701 79.2046 84.9685 79.4035C85.1669 79.6025 85.4362 79.7145 85.7171 79.715ZM86.7751 74.409H89.9491V77.593H86.7751V74.409ZM36.5221 79.715H41.8121C42.0931 79.7145 42.3623 79.6025 42.5607 79.4035C42.7591 79.2046 42.8704 78.935 42.8701 78.654V73.348C42.8704 73.0671 42.7591 72.7975 42.5607 72.5986C42.3623 72.3996 42.0931 72.2876 41.8121 72.287H36.5221C36.2413 72.2876 35.9722 72.3995 35.7739 72.5982C35.5755 72.7969 35.4641 73.0663 35.4641 73.347V78.654C35.4638 78.935 35.5751 79.2046 35.7735 79.4035C35.9719 79.6025 36.2412 79.7145 36.5221 79.715ZM37.5801 74.409H40.7541V77.593H37.5801V74.409ZM61.6491 67.709H65.3511C65.6319 67.7085 65.901 67.5966 66.0994 67.3979C66.2977 67.1991 66.4091 66.9298 66.4091 66.649C66.4094 66.5098 66.3822 66.3719 66.3292 66.2432C66.2762 66.1145 66.1983 65.9975 66.1001 65.8989C66.0018 65.8003 65.8851 65.722 65.7566 65.6685C65.6281 65.615 65.4903 65.5873 65.3511 65.587H61.6481C61.5089 65.5873 61.3711 65.615 61.2426 65.6685C61.1141 65.722 60.9974 65.8003 60.8992 65.8989C60.8009 65.9975 60.7231 66.1145 60.67 66.2432C60.617 66.3719 60.5898 66.5098 60.5901 66.649C60.5901 66.9298 60.7015 67.1991 60.8999 67.3979C61.0982 67.5966 61.3683 67.7085 61.6491 67.709Z" fill="#459AC0"/>
<path d="M98.83 90.723L28.205 90.721C28.1252 90.7339 28.044 90.7345 27.964 90.723C27.7608 90.6874 27.5792 90.5746 27.457 90.4084C27.3349 90.2421 27.2816 90.0351 27.3082 89.8305C27.3349 89.6259 27.4395 89.4395 27.6003 89.3101C27.761 89.1808 27.9654 89.1184 28.171 89.136L33.436 89.138L33.289 88.768C33.1546 88.4336 33.086 88.0764 33.087 87.716V82.916L33.072 82.873C32.552 81.398 31.306 77.106 30.987 69.118C30.8309 66.2323 31.3199 63.3481 32.4183 60.675C33.5167 58.002 35.197 55.6073 37.337 53.665L37.532 53.487L36.643 52.467L36.443 52.629C35.788 53.1555 34.9733 53.4433 34.133 53.445H33.622C32.6378 53.4408 31.6953 53.0471 31.0005 52.3501C30.3057 51.653 29.9151 50.7092 29.914 49.725V49.569C29.9148 49.0526 30.1199 48.5575 30.4845 48.1918C30.8491 47.826 31.3436 47.6194 31.86 47.617H35.893C36.4096 47.6192 36.9044 47.8256 37.2692 48.1914C37.634 48.5572 37.8392 49.0524 37.84 49.569V49.725C37.8391 50.1499 37.765 50.5714 37.621 50.971L37.568 51.121L38.216 51.867L38.386 51.477C40.751 46.064 44.868 40.131 44.908 40.075C46.006 38.313 52.953 37.269 63.5 37.269C74.047 37.269 81.005 38.327 82.115 40.099C82.593 40.796 86.695 46.839 88.873 52.087L89.027 52.459L89.747 51.736L89.645 51.558C89.3269 50.9995 89.1597 50.3678 89.16 49.725V49.569C89.1608 49.0524 89.366 48.5572 89.7308 48.1914C90.0957 47.8256 90.5904 47.6192 91.107 47.617H95.14C95.6566 47.6194 96.1513 47.8262 96.5159 48.1921C96.8805 48.5581 97.0855 49.0534 97.086 49.57V49.725C97.085 50.7092 96.6943 51.653 95.9995 52.3501C95.3047 53.0471 94.3622 53.4408 93.378 53.445H92.868C92.2274 53.4435 91.5983 53.2757 91.042 52.958L90.863 52.856L89.874 53.848L90.071 54.038C92.0793 55.9823 93.6486 58.3335 94.6734 60.9341C95.6983 63.5347 96.155 66.3244 96.013 69.116C95.694 77.104 94.449 81.398 93.928 82.873L93.913 82.916V87.716C93.913 88.078 93.844 88.432 93.711 88.769L93.564 89.139H98.794C98.8741 89.1261 98.9557 89.1254 99.036 89.137C99.2463 89.1649 99.4369 89.2752 99.566 89.4436C99.695 89.612 99.7518 89.8247 99.724 90.035C99.6961 90.2448 99.5863 90.4349 99.4186 90.5638C99.2508 90.6928 99.0398 90.75 98.83 90.723ZM42.071 87.717C42.071 88.079 42.002 88.433 41.869 88.768L41.722 89.138H85.276L85.129 88.768C84.9946 88.4336 84.926 88.0764 84.927 87.716V83.956H84.092C83.9799 83.955 83.8693 83.9305 83.7673 83.8839C83.6653 83.8374 83.5743 83.77 83.5 83.686L82.41 82.454H44.59L43.499 83.686C43.4245 83.7703 43.3331 83.8378 43.2308 83.8843C43.1284 83.9309 43.0174 83.9553 42.905 83.956H42.072L42.071 87.717ZM86.506 87.717C86.506 88.427 87.082 89.004 87.79 89.005H91.048C91.3889 89.0037 91.7155 88.8675 91.9562 88.6262C92.197 88.3848 92.3325 88.058 92.333 87.717V83.956H86.506V87.717ZM34.665 87.717C34.665 88.427 35.242 89.004 35.949 89.005H39.208C39.5488 89.0035 39.875 88.8671 40.1156 88.6258C40.3562 88.3845 40.4915 88.0578 40.492 87.717V83.956H34.665V87.717ZM82.773 80.871C82.996 80.871 83.209 80.967 83.357 81.135L84.447 82.372H92.426L92.488 82.19C92.973 80.761 94.133 76.621 94.433 69.055C94.466 68.241 94.447 67.416 94.379 66.603L94.359 66.373L94.129 66.357C91.7599 66.2003 89.3814 66.2635 87.024 66.546C83.7382 67.0144 80.4961 67.7502 77.33 68.746C73.279 69.911 69.084 71.119 63.825 71.119C60.2005 71.0875 56.5961 70.5777 53.105 69.603C49.6173 68.6485 46.0826 67.8748 42.515 67.285C40.123 66.912 38.032 66.723 36.299 66.723C34.269 66.723 33.204 66.987 32.749 67.145L32.576 67.205L32.568 67.388C32.5438 67.9434 32.5428 68.4996 32.565 69.055C32.865 76.605 34.025 80.755 34.51 82.19L34.572 82.373H42.55L43.641 81.135C43.7141 81.0522 43.804 80.9858 43.9046 80.9403C44.0053 80.8948 44.1145 80.8712 44.225 80.871H82.773ZM47.448 62.304C47.648 62.898 47.699 63.538 47.598 64.157C47.4693 64.8501 47.1723 65.5008 46.733 66.052L46.458 66.395L46.888 66.485C48.952 66.915 51.18 67.449 53.508 68.072C57.218 69.063 60.597 69.545 63.836 69.545C68.83 69.545 72.75 68.416 76.901 67.222C77.5543 67.0327 78.2143 66.845 78.881 66.659L79.245 66.557L79.029 66.245C78.6223 65.6581 78.3611 64.9829 78.267 64.275C78.1933 63.6464 78.2609 63.0092 78.465 62.41L78.618 61.96L78.155 62.059C73.2244 63.1074 68.1978 63.6379 63.157 63.642C57.9788 63.6428 52.8161 63.0771 47.761 61.955L47.296 61.852L47.448 62.304ZM91.134 58.054C87.8099 59.4116 84.3949 60.535 80.914 61.416L80.839 61.435L80.786 61.491C80.4635 61.8315 80.2127 62.2332 80.0484 62.6725C79.8842 63.1117 79.8099 63.5795 79.83 64.048C79.9468 64.7985 80.3145 65.4873 80.873 66.002L80.98 66.101L81.121 66.064C83.001 65.5831 84.909 65.2191 86.834 64.974C89.1398 64.6981 91.4653 64.6235 93.784 64.751L94.134 64.771L94.063 64.428C93.6057 62.1893 92.7216 60.0595 91.459 58.155L91.338 57.971L91.134 58.054ZM36.309 65.14C38.121 65.14 40.29 65.336 42.758 65.72C43.297 65.8059 43.835 65.8976 44.372 65.995L44.477 66.014L44.566 65.956C45.2966 65.4817 45.822 64.7499 46.038 63.906C46.168 63.108 45.858 62.273 45.119 61.402L45.063 61.328L44.949 61.267C41.8396 60.4591 38.8071 59.3803 35.886 58.043L35.678 57.947L35.551 58.139C34.1543 60.2396 33.22 62.613 32.81 65.102L32.745 65.49L33.129 65.41C33.999 65.232 35.069 65.14 36.309 65.14ZM63.5 38.853C53.764 38.853 47.078 39.906 46.238 40.925C45.731 41.662 41.391 48.052 39.35 53.271C39.238 53.561 39.13 53.841 39.034 54.12C38.9817 54.2896 38.8805 54.4399 38.743 54.552C38.0605 55.0992 37.4341 55.7129 36.873 56.384L36.647 56.656L36.968 56.802C40.431 58.384 49.913 62.062 63.128 62.062C72.215 62.062 81.261 60.293 90.015 56.802L90.361 56.665L90.121 56.379C89.5636 55.7103 88.9405 55.0992 88.261 54.555C88.1349 54.4577 88.0394 54.3261 87.986 54.176C86.047 48.583 80.846 41.043 80.794 40.971C79.949 39.937 73.608 38.853 63.5 38.853ZM91.106 49.2C91.0086 49.2008 90.9154 49.24 90.8467 49.3091C90.778 49.3782 90.7393 49.4716 90.739 49.569V49.725C90.7398 50.2904 90.9642 50.8324 91.3633 51.2328C91.7624 51.6332 92.3037 51.8594 92.869 51.862H93.379C93.9441 51.8591 94.4852 51.6328 94.8841 51.2324C95.2829 50.8321 95.5072 50.2902 95.508 49.725V49.569C95.508 49.4713 95.4693 49.3774 95.4003 49.3081C95.3314 49.2388 95.2378 49.1996 95.14 49.199L91.106 49.2ZM31.86 49.2C31.7624 49.2006 31.6689 49.2396 31.6 49.3088C31.5311 49.3779 31.4923 49.4714 31.492 49.569V49.725C31.4928 50.2904 31.7172 50.8324 32.1163 51.2328C32.5154 51.6332 33.0567 51.8594 33.622 51.862H34.132C34.6973 51.8594 35.2386 51.6332 35.6377 51.2328C36.0368 50.8324 36.2612 50.2904 36.262 49.725V49.569C36.262 49.4713 36.2233 49.3774 36.1543 49.3081C36.0854 49.2388 35.9918 49.1996 35.894 49.199L31.86 49.2ZM46.837 78.384C46.6271 78.384 46.4258 78.3007 46.2773 78.1522C46.1289 78.0038 46.0455 77.8025 46.0455 77.5925C46.0455 77.3826 46.1289 77.1813 46.2773 77.0329C46.4258 76.8844 46.6271 76.801 46.837 76.801H80.163C80.3729 76.801 80.5742 76.8844 80.7227 77.0329C80.8711 77.1813 80.9545 77.3826 80.9545 77.5925C80.9545 77.8025 80.8711 78.0038 80.7227 78.1522C80.5742 78.3007 80.3729 78.384 80.163 78.384H46.837ZM48.688 74.67C48.478 74.67 48.2765 74.5866 48.128 74.4381C47.9795 74.2895 47.896 74.0881 47.896 73.878C47.896 73.668 47.9795 73.4665 48.128 73.318C48.2765 73.1695 48.478 73.086 48.688 73.086H78.312C78.5221 73.086 78.7235 73.1695 78.872 73.318C79.0206 73.4665 79.104 73.668 79.104 73.878C79.104 74.0881 79.0206 74.2895 78.872 74.4381C78.7235 74.5866 78.5221 74.67 78.312 74.67H48.688ZM62.71 58.773C50.326 58.773 42.413 56.076 42.083 55.961C41.9845 55.927 41.8937 55.8738 41.8158 55.8046C41.7379 55.7353 41.6745 55.6513 41.6293 55.5574C41.584 55.4635 41.5577 55.3616 41.552 55.2576C41.5463 55.1535 41.5613 55.0493 41.596 54.951C43.282 50.127 47.621 43.893 47.806 43.631C48.762 42.113 54.48 41.249 63.5 41.249C72.52 41.249 78.248 42.129 79.216 43.661C79.268 43.736 83.713 50.111 85.404 54.951C85.4407 55.0547 85.4554 55.165 85.4471 55.2747C85.4388 55.3843 85.4076 55.4911 85.3557 55.5881C85.3037 55.685 85.2321 55.7701 85.1453 55.8377C85.0586 55.9054 84.9587 55.9542 84.852 55.981C77.6144 57.8197 70.1775 58.7574 62.71 58.773ZM63.5 42.833C55.521 42.833 49.926 43.68 49.127 44.5C48.437 45.499 45.161 50.353 43.487 54.423L43.371 54.704L43.663 54.786C46.2 55.496 53.149 57.15 62.862 57.15C69.7463 57.142 76.6062 56.3299 83.302 54.73L83.61 54.658L83.489 54.365C81.637 49.895 77.939 44.592 77.902 44.539C77.078 43.683 71.483 42.833 63.5 42.833Z" fill="#1C1C1C"/>
</svg>

<svg width="128" height="128" viewBox="0 0 128 128" fill="none" xmlns="http://www.w3.org/2000/svg"><path d="M85.717 79.715h5.29a1.06 1.06 0 0 0 1.058-1.061v-5.306a1.06 1.06 0 0 0-1.058-1.061h-5.29a1.06 1.06 0 0 0-1.058 1.06v5.307a1.06 1.06 0 0 0 1.058 1.061m1.058-5.306h3.174v3.184h-3.174zm-50.253 5.306h5.29a1.06 1.06 0 0 0 1.058-1.061v-5.306a1.06 1.06 0 0 0-1.058-1.061h-5.29a1.06 1.06 0 0 0-1.058 1.06v5.307a1.06 1.06 0 0 0 1.058 1.061m1.058-5.306h3.174v3.184H37.58zm24.069-6.7h3.702a1.06 1.06 0 0 0 1.058-1.06 1.06 1.06 0 0 0-1.058-1.062h-3.703a1.06 1.06 0 0 0-1.058 1.062 1.06 1.06 0 0 0 1.058 1.06" fill="#d1b28b"/><path d="m98.83 90.723-70.625-.002a.8.8 0 0 1-.241.002.801.801 0 0 1 .207-1.587l5.265.002-.147-.37a2.8 2.8 0 0 1-.202-1.052v-4.8l-.015-.043c-.52-1.475-1.766-5.767-2.085-13.755a19.45 19.45 0 0 1 6.35-15.453l.195-.178-.889-1.02-.2.162a3.7 3.7 0 0 1-2.31.816h-.511a3.724 3.724 0 0 1-3.708-3.72v-.156a1.955 1.955 0 0 1 1.946-1.952h4.033a1.955 1.955 0 0 1 1.947 1.952v.156a3.7 3.7 0 0 1-.219 1.246l-.053.15.648.746.17-.39c2.365-5.413 6.482-11.346 6.522-11.402 1.098-1.762 8.045-2.806 18.592-2.806s17.505 1.058 18.615 2.83c.478.697 4.58 6.74 6.758 11.988l.154.372.72-.723-.102-.178a3.7 3.7 0 0 1-.485-1.833v-.156a1.955 1.955 0 0 1 1.947-1.952h4.033a1.955 1.955 0 0 1 1.946 1.953v.155a3.724 3.724 0 0 1-3.708 3.72h-.51a3.7 3.7 0 0 1-1.826-.487l-.179-.102-.989.992.197.19a19.6 19.6 0 0 1 5.942 15.078c-.319 7.988-1.564 12.282-2.085 13.757l-.015.043v4.8c0 .362-.069.716-.202 1.053l-.147.37h5.23a.8.8 0 0 1 .242-.002.8.8 0 0 1 .688.898.8.8 0 0 1-.895.688m-56.758-3.006c0 .362-.069.716-.202 1.051l-.147.37h43.554l-.147-.37a2.8 2.8 0 0 1-.202-1.052v-3.76h-.835a.8.8 0 0 1-.592-.27l-1.09-1.232H44.59l-1.091 1.232a.8.8 0 0 1-.594.27h-.833zm44.435 0c0 .71.576 1.287 1.284 1.288h3.258a1.29 1.29 0 0 0 1.285-1.288v-3.761h-5.827zm-51.841 0c0 .71.577 1.287 1.284 1.288h3.259a1.29 1.29 0 0 0 1.284-1.288v-3.761h-5.827zm48.108-6.846c.223 0 .436.096.584.264l1.09 1.237h7.979l.062-.182c.485-1.429 1.645-5.569 1.945-13.135.033-.814.014-1.639-.054-2.452l-.02-.23-.23-.016a38.4 38.4 0 0 0-7.105.189 61 61 0 0 0-9.694 2.2c-4.051 1.165-8.246 2.373-13.505 2.373a41.2 41.2 0 0 1-10.72-1.516 105 105 0 0 0-10.59-2.318c-2.392-.373-4.483-.562-6.216-.562-2.03 0-3.095.264-3.55.422l-.173.06-.008.183a20 20 0 0 0-.003 1.667c.3 7.55 1.46 11.7 1.945 13.135l.062.183h7.978l1.091-1.238a.78.78 0 0 1 .584-.264zM47.448 62.304c.2.594.251 1.234.15 1.853a4.3 4.3 0 0 1-.865 1.895l-.275.343.43.09c2.064.43 4.292.964 6.62 1.587 3.71.991 7.089 1.473 10.328 1.473 4.994 0 8.914-1.129 13.065-2.323q.98-.284 1.98-.563l.364-.102-.216-.312a4.5 4.5 0 0 1-.762-1.97 4.25 4.25 0 0 1 .198-1.865l.153-.45-.463.099a72.4 72.4 0 0 1-14.998 1.583 71 71 0 0 1-15.396-1.687l-.465-.103zm43.686-4.25a77 77 0 0 1-10.22 3.362l-.075.019-.053.056a3.5 3.5 0 0 0-.956 2.557 3.36 3.36 0 0 0 1.043 1.954l.107.099.141-.037a47 47 0 0 1 5.713-1.09 40 40 0 0 1 6.95-.223l.35.02-.071-.343a17.8 17.8 0 0 0-2.604-6.273l-.121-.184zM36.309 65.14c1.812 0 3.981.196 6.449.58a76 76 0 0 1 1.614.275l.105.019.089-.058a3.47 3.47 0 0 0 1.472-2.05c.13-.798-.18-1.633-.919-2.504l-.056-.074-.114-.061a55 55 0 0 1-9.063-3.224l-.208-.096-.127.192a17.8 17.8 0 0 0-2.741 6.963l-.065.388.384-.08c.87-.178 1.94-.27 3.18-.27M63.5 38.853c-9.736 0-16.422 1.053-17.262 2.072-.507.737-4.847 7.127-6.888 12.346-.112.29-.22.57-.316.849a.9.9 0 0 1-.291.432 13.2 13.2 0 0 0-1.87 1.832l-.226.272.321.146c3.463 1.582 12.945 5.26 26.16 5.26 9.087 0 18.133-1.769 26.887-5.26l.346-.137-.24-.286a13 13 0 0 0-1.86-1.824.83.83 0 0 1-.275-.379c-1.939-5.593-7.14-13.133-7.192-13.205-.845-1.034-7.186-2.118-17.294-2.118M91.106 49.2a.37.37 0 0 0-.367.369v.156a2.14 2.14 0 0 0 2.13 2.137h.51a2.14 2.14 0 0 0 2.129-2.137v-.156a.37.37 0 0 0-.368-.37zm-59.246 0a.37.37 0 0 0-.368.369v.156a2.14 2.14 0 0 0 2.13 2.137h.51a2.14 2.14 0 0 0 2.13-2.137v-.156a.37.37 0 0 0-.368-.37zm14.977 29.184a.791.791 0 0 1 0-1.583h33.326a.791.791 0 0 1 0 1.583zm1.851-3.714a.791.791 0 0 1 0-1.584h29.624a.791.791 0 0 1 0 1.584zM62.71 58.773c-12.384 0-20.297-2.697-20.627-2.812a.79.79 0 0 1-.487-1.01c1.686-4.824 6.025-11.058 6.21-11.32.956-1.518 6.674-2.382 15.694-2.382s14.748.88 15.716 2.412c.052.075 4.497 6.45 6.188 11.29a.79.79 0 0 1-.552 1.03 90.7 90.7 0 0 1-22.142 2.792m.79-15.94c-7.979 0-13.574.847-14.373 1.667-.69.999-3.966 5.853-5.64 9.923l-.116.281.292.082c2.537.71 9.486 2.364 19.199 2.364a88.4 88.4 0 0 0 20.44-2.42l.308-.072-.121-.293c-1.852-4.47-5.55-9.773-5.587-9.826-.824-.856-6.419-1.707-14.402-1.707" fill="#1c1c1c"/></svg>
